X: 37242
T: Six-Leafed Clover, The
R: hornpipe
M: 4/4
K: Dmajor
|:(3ABc|dAfd (3gfe fd|efed cA (3AAA|Bdfd g2 (3fed|edce d2 (3ABc|
dAfd (3gfe fd|efed cA (3AAA|Bf (3def g2 (3fed|A2 f2 d2:|
|:ag|fB (3BdB gB (3BeB|fded c2 A2|Bdfd g2 (3fed|edce d2(3ABc|
dAfd (3gfe fd|efed cA (3AAA|Bf (3def g2 (3fed|A2 f2 d2:|

